packages/katcn/src/icons/svg/beaker.svg

<svg width="24" height="25" viewBox="0 0 24 25" fill="none" xmlns="http://www.w3.org/2000/svg">
<path d="M14.9 8.10801V3.20801H15.8C16.4 3.20801 16.8 2.80801 16.8 2.20801C16.8 1.60801 16.4 1.20801 15.8 1.20801H8.3C7.7 1.20801 7.3 1.60801 7.3 2.20801C7.3 2.80801 7.7 3.20801 8.3 3.20801H12.9V8.80801C12.9 9.30801 13.2 9.60801 13.6 9.80801C16.2 10.508 18 12.808 18 15.408C18 18.608 15.3 21.208 12 21.208C8.7 21.208 6 18.608 6 15.408C6 12.808 7.8 10.508 10.4 9.80801C10.8 9.70801 11.1 9.30801 11.1 8.80801V4.90801C11.1 4.30801 10.7 3.90801 10.1 3.90801C9.5 3.90801 9.1 4.30801 9.1 4.90801V8.10801C6.1 9.20801 4 12.108 4 15.408C4 19.708 7.6 23.208 12 23.208C16.4 23.208 20 19.708 20 15.408C20 12.108 17.9 9.20801 14.9 8.10801Z" fill="black"/>
</svg>

<svg xmlns="http://www.w3.org/2000/svg" fill="none" viewBox="0 0 24 25"><path fill="#000" d="M14.9 8.108v-4.9h.9c.6 0 1-.4 1-1s-.4-1-1-1H8.3c-.6 0-1 .4-1 1s.4 1 1 1h4.6v5.6c0 .5.3.8.7 1 2.6.7 4.4 3 4.4 5.6 0 3.2-2.7 5.8-6 5.8s-6-2.6-6-5.8c0-2.6 1.8-4.9 4.4-5.6.4-.1.7-.5.7-1v-3.9c0-.6-.4-1-1-1s-1 .4-1 1v3.2c-3 1.1-5.1 4-5.1 7.3 0 4.3 3.6 7.8 8 7.8s8-3.5 8-7.8c0-3.3-2.1-6.2-5.1-7.3"/></svg>
